!!!OTL: Der Reiter und sein Liebchen (53a), S. 167
!!!id: T0191
**kern
*clefG2
*k[f#]
*G:
{4d
=1
4.g
8f#
4b
=2
4.a
8g
4a
=3
4.b
8cc
4b
=4
4a}
4r
=5
{4d
=6
4.g
8f#
4b
=7
4.a
8g
4a
=8
4.b
8cc
4b
=9
4a}
4r
=10
{4dd
=11
4.cc
8b
8a
16a
16cc
=12
4.b
8a}
=13
{4g
=14
4.a
8g
4f#
=15
8g
8b
4dd}
=16
{4ee
=17
4.ee
8ee
8ee
16ee
16ee
=18
4.dd
8b}
=19
{4b
=20
4.cc
8b
4a
=21
4g}
4r
==
*-
!!!minrhy: 16
!!!meters: 3/4 ]  ZZ[6
!!!cut: Der Reiter und sein Liebchen (53a), S. 167
!!!reg: Luxemburg
!!!trd: Singendes Volk, Esch-Alzette 1937 posth.
!!!rhy1: X__  X__.X_X__  X__.X_X__  X__.X_X__  X__0_   (x2)
!!!rhy2: X__  X__.X_X__  X__.X_X__  X__.X_X__  X__0_
!!!key: T0191  16  G 3/4 ]  ZZ[6
!!!mod: HEPTATONIK IONISCH]  AMBITUS[9
!!!kad: 222531
!!!akz: 1232_1232_43_21_65_41_
!!!fot: 'a__a__b__bs"c__bs"
!!!for: 'a__a__b__c__b__aw_
!!!fok: 'Ma_Ma_\__/__\__\__
!! PHRAS[AUFTAKTIG]
!!!fkt: Liebeslieder
!!!bem: StraPen, fff Witry, 13.12.1932
!! THILL, Mathias:
!! PR[12] 2K[6] 2G[12] 3K[4] 3G[6] 4A[10] 4Ü[0] 5A[0] 6K[0] 6G[0]
!! 7K[0] 7G[0] 8A[0] MEHR[0] SI[39] ABS[49] SR[18] SP[20]
!! ST[16] 2k[12] 2g[29] 3k[2] 3g[2] 4d[2] 4ü[0] 5d[2] 6k[0] 6g[0]
!! 7k[0] 7g[0] 8d[0] mehr[0] si[49] dm[-10] sr[41] sp[8]
!! 1F[4] 2F[36] 3F[38] 4F[0] LF[0] 2P[0] 3P[23] 4P[0] TRI[0] DF[4] AB[53]
!! TF[0] U3K[0] U3[0] U4[0] U4Ü[0] U5[6] U6K[0] U6[0] U7K[0] U7[4]
!! N1[18] N2K[0] N2[18] N3K[0] N3[24] N4[12] N4Ü[0] N5[12] N6K[0] N6[6]
!!!n7k: 0] N7[0] O1[0] O2K[0] O2[0] O3K[0] O3[0] HÖ[0
